X: 401
T: Muckle Friday
C: Bert Murray
R: jig
B: Bert Murray's "Bon Accord Collection" 1999 p.40
%
Z: 2011 John Chambers <jc:trillian.mit.edu>
M: 6/8
L: 1/8
K: C
|: ug |\
e2g d>ed | c>GG G2c | A>Bc G>cd | (e/f/g)e d2g |\
e>ge d>ed | c2G G2c | A>dc B>ed | c3 c2 :|
|: uE |\
G>EC C>EG | A2F F2A | G>EG A>FA | G>EC (D2E) |\
G>EC (D2E) | (A/B/c)A G>EG | A>dc B>ed | c3 c2 :|
